X:674
T: The Mossy Banks
Z: Piano Box Version by Martin Fleischmann
H: Created 2015-03-30 /  Last Modified 2015-04-08
R: reel
M: 4/4
L: 1/8
K: Gmaj
gedB G3A|BAGB AE~E2|DEGA Bddd|edgd egga|
gedB GGGz|BAGB AE~E2|DEGA Bdge|1dBAG EGG2:|2dBAG EGGD:|:
G3B ABGE|D2BG AGEA|BBBd edgg|BAGA BAAA|
G2GG AEEE|DGBG AGEA|BGBd gedB|A2GA BGG2:|:
g2dg egdg|~g2bg agef|g2dg egdB|ABGA BGG2|
g2dg egdg|~g2bg aged|~g3a gfed|e/f/gfa gdef:|

